src/assets/duotone/Setting4.svg

<svg width="24" height="24" viewBox="0 0 24 24"  xmlns="http://www.w3.org/2000/svg">
<path opacity="0.4" d="M21.23 7.62047H15.69C15.31 7.62047 15 7.31047 15 6.92047C15 6.54047 15.31 6.23047 15.69 6.23047H21.23C21.61 6.23047 21.92 6.54047 21.92 6.92047C21.92 7.31047 21.61 7.62047 21.23 7.62047Z" />
<path opacity="0.4" d="M6.46008 7.62023H2.77008C2.39008 7.62023 2.08008 7.31023 2.08008 6.93023C2.08008 6.55023 2.39008 6.24023 2.77008 6.24023H6.46008C6.84008 6.24023 7.15008 6.55023 7.15008 6.93023C7.15008 7.31023 6.84008 7.62023 6.46008 7.62023Z" />
<path d="M10.15 10.84C12.3149 10.84 14.07 9.08496 14.07 6.92C14.07 4.75504 12.3149 3 10.15 3C7.98502 3 6.22998 4.75504 6.22998 6.92C6.22998 9.08496 7.98502 10.84 10.15 10.84Z" />
<path opacity="0.4" d="M21.2301 17.7696H17.5401C17.1601 17.7696 16.8501 17.4596 16.8501 17.0796C16.8501 16.6996 17.1601 16.3896 17.5401 16.3896H21.2301C21.6101 16.3896 21.9201 16.6996 21.9201 17.0796C21.9201 17.4596 21.6101 17.7696 21.2301 17.7696Z" />
<path opacity="0.4" d="M8.31008 17.7696H2.77008C2.39008 17.7696 2.08008 17.4596 2.08008 17.0796C2.08008 16.6996 2.39008 16.3896 2.77008 16.3896H8.31008C8.69008 16.3896 9.00008 16.6996 9.00008 17.0796C9.00008 17.4596 8.69008 17.7696 8.31008 17.7696Z" />
<path d="M13.8502 21.0002C16.0151 21.0002 17.7702 19.2451 17.7702 17.0802C17.7702 14.9152 16.0151 13.1602 13.8502 13.1602C11.6852 13.1602 9.93018 14.9152 9.93018 17.0802C9.93018 19.2451 11.6852 21.0002 13.8502 21.0002Z" />
</svg>

<?xml version="1.0" encoding="UTF-8"?>
<svg width="24" height="24" viewBox="0 0 24 24" xmlns="http://www.w3.org/2000/svg">
 <path d="m21.23 7.6205h-5.54c-0.38 0-0.69-0.31-0.69-0.7 0-0.38 0.31-0.69 0.69-0.69h5.54c0.38 0 0.69 0.31 0.69 0.69 0 0.39-0.31 0.7-0.69 0.7z" opacity=".4"/>
 <path d="m6.4601 7.6202h-3.69c-0.38 0-0.69-0.31-0.69-0.69s0.31-0.69 0.69-0.69h3.69c0.38 0 0.69 0.31 0.69 0.69s-0.31 0.69-0.69 0.69z" opacity=".4"/>
 <path d="m10.15 10.84c2.1649 0 3.92-1.755 3.92-3.92s-1.7551-3.92-3.92-3.92c-2.165 0-3.92 1.755-3.92 3.92s1.755 3.92 3.92 3.92z"/>
 <path d="m21.23 17.77h-3.69c-0.38 0-0.69-0.31-0.69-0.69s0.31-0.69 0.69-0.69h3.69c0.38 0 0.69 0.31 0.69 0.69s-0.31 0.69-0.69 0.69z" opacity=".4"/>
 <path d="m8.3101 17.77h-5.54c-0.38 0-0.69-0.31-0.69-0.69s0.31-0.69 0.69-0.69h5.54c0.38 0 0.69 0.31 0.69 0.69s-0.31 0.69-0.69 0.69z" opacity=".4"/>
 <path d="m13.85 21c2.1649 0 3.92-1.7551 3.92-3.92 0-2.165-1.7551-3.92-3.92-3.92-2.165 0-3.92 1.755-3.92 3.92 0 2.1649 1.755 3.92 3.92 3.92z"/>
</svg>
